X: 1
T: Duke of York's March  v.1
P: piffero primo b0013
O: Cushing 18-5 -- mod
F: http://ancients.sudburymuster.org/mus/med/pdf/yorkmedC0.pdf
Z: 2020 John Chambers <jc:trillian.mit.edu>
M: 4/4
L: 1/16
K: D
z2 |\
D4 D3D F4 F3F | A2F2A2F2 D4 A4 | d3Ad3A d2A2F2D2 | A4 A3A A4 z4 |\
a6 f2 d4 d4 | e4 e3g f4 z2a2 | a6 f2 (f2d2)(g2f2) |
e4 e3e e4 z2 :: z2 |\
A4 A3A (A2e2f2g2) | A4 A3A (A2d2f2a2) | (g2e2)e2e2 (f2d2)d2d2 | (b2a2g2f2) (f4 e4) |\
d6 fe d2A2B2=c2 |
=c2B2 B8 (^cdef) | .g2.g2.f2.f2 .e2.e2.d2.d2 | e4 e3e e4 z4 |\
D4 D3D F4 F3F | A2F2A2F2 D4 g4 | (f2a2)(a2f2) (g2e2)(d2c2) | d4 d3d d4 z2 :|
